docs/assets/img/logo.svg

<svg width="102" height="29" viewBox="0 0 102 29" fill="none" xmlns="http://www.w3.org/2000/svg">
<g clip-path="url(#clip0_3116_13)">
<path fill-rule="evenodd" clip-rule="evenodd" d="M31.0966 24.3625V11.9809H35.2922V24.3625H31.0966ZM33.1948 10.6107C32.4294 10.6107 31.8108 10.3896 31.3397 9.94817C30.8686 9.50675 30.6331 8.95789 30.6331 8.30315C30.6331 7.64841 30.8686 7.10033 31.3397 6.65813C31.8108 6.21671 32.4294 5.99561 33.1948 5.99561C33.9602 5.99561 34.5788 6.20892 35.0499 6.63555C35.521 7.04661 35.7565 7.5799 35.7565 8.23464C35.7565 8.88938 35.521 9.49118 35.0499 9.94817C34.5938 10.3896 33.9752 10.6107 33.1948 10.6107ZM63.6768 8.37166V24.3625H72.0242C74.0998 24.3625 75.6757 23.9818 76.7504 23.2204C77.8393 22.4435 78.3842 21.3621 78.3842 19.9763C78.3842 19.0476 78.1561 18.2628 77.6993 17.6236C77.2576 16.9689 76.6322 16.4738 75.8224 16.139C75.7291 16.0985 75.6335 16.0604 75.5365 16.0245C76.1528 15.6804 76.6382 15.2468 76.9927 14.7229C77.4201 14.0985 77.6331 13.3752 77.6331 12.5523C77.6331 11.3036 77.1327 10.2985 76.1317 9.53711C75.1308 8.76014 73.6144 8.37166 71.5825 8.37166H63.6768ZM71.6713 21.0958H68.0055V17.8517H71.6713C72.4223 17.8517 72.989 17.9888 73.3713 18.2628C73.7687 18.522 73.9674 18.9253 73.9674 19.4734C73.9674 20.0215 73.7687 20.4325 73.3713 20.7074C72.9883 20.9666 72.4216 21.0958 71.6713 21.0958ZM68.0055 14.7229V11.6391H71.009C71.745 11.6391 72.2974 11.7684 72.6654 12.0276C73.0334 12.2713 73.2171 12.652 73.2171 13.1697C73.2171 13.6874 73.0327 14.0759 72.6654 14.3351C72.2974 14.5936 71.745 14.7236 71.009 14.7236H68.0055V14.7229ZM99.079 24.5688C97.5483 24.5688 96.3555 24.1804 95.5021 23.4042C94.6479 22.6124 94.2212 21.4244 94.2212 19.8401V15.682H92.4767V12.4379H94.2212V9.21714H98.4167V12.4379H101.155V15.682H98.4167V19.7942C98.4167 20.2356 98.5349 20.5859 98.7704 20.8452C99.006 21.0888 99.3078 21.2103 99.6758 21.2103C100.176 21.2103 100.603 21.0811 100.957 20.8218L101.994 23.8604C101.641 24.1041 101.207 24.2792 100.691 24.3859C100.176 24.5081 99.6389 24.5688 99.079 24.5688ZM86.2801 24.5688C84.8668 24.5688 83.6303 24.2948 82.57 23.7467C81.5246 23.1831 80.7081 22.4217 80.1188 21.4625C79.5446 20.4878 79.2579 19.3839 79.2579 18.1499C79.2579 16.916 79.5371 15.8198 80.097 14.8607C80.6712 13.8859 81.4584 13.1323 82.4593 12.599C83.461 12.051 84.5868 11.7769 85.8383 11.7769C87.0161 11.7769 88.0908 12.0284 89.0623 12.5305C90.0339 13.0179 90.8068 13.7411 91.381 14.7011C91.9552 15.6602 92.2427 16.8256 92.2427 18.1966C92.2427 18.3492 92.2352 18.5244 92.2201 18.7221C92.2058 18.9199 92.1908 19.1028 92.1765 19.2702H83.4798C83.5378 19.4913 83.6168 19.6968 83.7184 19.8868C83.969 20.3282 84.3219 20.6708 84.778 20.9152C85.2348 21.1433 85.7796 21.2578 86.4126 21.2578C87.0011 21.2578 87.5015 21.1737 87.9139 21.0063C88.3414 20.8234 88.7606 20.5493 89.173 20.1842L91.381 22.5602C90.8068 23.215 90.1001 23.7179 89.261 24.0682C88.4219 24.403 87.4285 24.5712 86.2801 24.5712V24.5688ZM83.674 16.1841C83.5536 16.4247 83.4685 16.691 83.4181 16.9837H88.3166C88.2691 16.6824 88.1788 16.4076 88.0464 16.1616C87.8402 15.7505 87.5459 15.4305 87.1636 15.2024C86.7956 14.9743 86.3606 14.8599 85.8602 14.8599C85.3597 14.8599 84.918 14.9743 84.5357 15.2024C84.1677 15.4305 83.8802 15.7583 83.674 16.1849V16.1841ZM52.2799 29.0002C51.647 29.0002 51.0066 28.8935 50.3586 28.6802C49.7257 28.4825 49.2102 28.2154 48.8128 27.8807L50.2705 24.8421C50.5211 25.0702 50.8079 25.2454 51.1315 25.3676C51.4701 25.5046 51.8013 25.5731 52.1249 25.5731C52.5817 25.5731 52.9422 25.4665 53.2071 25.2532C53.4155 25.085 53.6014 24.8421 53.7647 24.5229L48.636 11.9809H52.9422L55.8809 19.5466L58.8385 11.9809H62.8354L57.6683 24.8655C57.2559 25.9313 56.778 26.7612 56.2331 27.3552C55.7033 27.9648 55.1073 28.3906 54.4443 28.6343C53.7963 28.878 53.0754 29.0002 52.2799 29.0002ZM40.1387 23.7459C41.184 24.294 42.3693 24.5681 43.6939 24.5681C45.0184 24.5681 46.2187 24.2707 47.2053 23.6774C48.192 23.0842 48.8911 22.2457 49.3035 21.1644L46.0569 19.4508C45.777 20.0293 45.4315 20.4559 45.0191 20.7299C44.6067 20.9892 44.1582 21.1184 43.672 21.1184C43.1859 21.1184 42.7449 21.004 42.3468 20.7759C41.9494 20.5478 41.6326 20.2122 41.397 19.7708C41.1765 19.3294 41.0659 18.7883 41.0659 18.1491C41.0659 17.51 41.1765 16.9993 41.397 16.5726C41.6326 16.1312 41.9494 15.7957 42.3468 15.5676C42.7441 15.3394 43.1859 15.225 43.672 15.225C44.1582 15.225 44.6067 15.362 45.0191 15.6361C45.4315 15.8953 45.777 16.3142 46.0569 16.8926L49.3035 15.1791C48.8911 14.0977 48.192 13.26 47.2053 12.666C46.2187 12.072 45.0485 11.7754 43.6939 11.7754C42.3392 11.7754 41.184 12.0494 40.1387 12.5975C39.1085 13.1308 38.2987 13.8766 37.7094 14.8365C37.1202 15.7957 36.8259 16.9004 36.8259 18.1491C36.8259 19.3979 37.1202 20.5096 37.7094 21.4843C38.2987 22.4442 39.1077 23.1979 40.1387 23.7459ZM18.6552 23.9748C19.4356 24.3711 20.3116 24.5688 21.2832 24.5688C22.196 24.5688 23.0427 24.3477 23.8223 23.9063C24.2054 23.6821 24.544 23.4026 24.8383 23.0686V24.3633H28.8352V11.9817H24.6396V17.9444C24.6396 18.6295 24.5365 19.1931 24.3303 19.6346C24.1241 20.0612 23.8517 20.3734 23.513 20.5711C23.1744 20.7689 22.7988 20.8677 22.3872 20.8677C21.7543 20.8677 21.2614 20.6622 20.9076 20.2511C20.569 19.8401 20.3997 19.155 20.3997 18.1951V11.9817H16.2041V18.9035C16.2041 20.1982 16.4178 21.2718 16.8445 22.1243C17.2863 22.962 17.8899 23.5786 18.6552 23.9748Z" fill="#FFCBFA"/>
<path fill-rule="evenodd" clip-rule="evenodd" d="M3.35269 8.66943H14.8068V17.3507H14.806C14.7721 20.0211 13.6184 22.2734 12.1126 23.6225C10.6579 24.9258 8.68989 25.4318 7.05607 25.4318C5.33344 25.4318 3.61533 24.7 2.36983 23.9939C1.13186 23.2917 0 22.4166 0 22.4166L3.5333 18.5614C3.84863 18.8105 4.24598 19.083 4.68623 19.3321C5.63898 19.8724 6.46605 20.1254 6.94092 20.1254C7.27356 20.1254 7.96667 19.93 8.56496 19.3944C9.09025 18.9241 9.4861 18.2468 9.4861 17.2309V13.9766H3.35269V8.67021V8.66943Z" fill="#A56CFF"/>
<path fill-rule="evenodd" clip-rule="evenodd" d="M10.0578 7.58268C9.94794 4.49272 7.53672 2.02246 4.57762 2.02246C4.05609 2.02246 3.55112 2.09953 3.07324 2.24278C3.18312 5.33274 5.59434 7.803 8.55343 7.803C9.07496 7.803 9.57994 7.72592 10.0578 7.58268Z" fill="#197F3B"/>
<path fill-rule="evenodd" clip-rule="evenodd" d="M6.70508 7.50575C6.85484 3.33442 10.1338 0 14.1577 0C14.8674 0 15.5538 0.103544 16.2032 0.297396C16.0542 4.4695 12.7745 7.80314 8.75055 7.80314C8.04088 7.80314 7.35454 7.6996 6.70508 7.50575Z" fill="#8CE36D"/>
</g>
<defs>
<clipPath id="clip0_3116_13">
<rect width="102" height="29" fill="white"/>
</clipPath>
</defs>
</svg>

<svg width="102" height="29" fill="none" xmlns="http://www.w3.org/2000/svg"><g clip-path="url(#a)" fill-rule="evenodd" clip-rule="evenodd"><path d="M31.097 24.363V11.98h4.195v12.382h-4.195Zm2.098-13.752c-.766 0-1.384-.221-1.855-.663a2.163 2.163 0 0 1-.707-1.645c0-.655.236-1.203.707-1.645.47-.441 1.09-.662 1.855-.662.765 0 1.384.213 1.855.64.471.41.707.944.707 1.599 0 .654-.236 1.256-.707 1.713-.456.442-1.075.663-1.855.663Zm30.482-2.24v15.992h8.347c2.076 0 3.652-.381 4.726-1.143 1.09-.776 1.634-1.858 1.634-3.244 0-.928-.228-1.713-.685-2.352-.441-.655-1.067-1.15-1.877-1.485a5.6 5.6 0 0 0-.285-.114c.616-.345 1.101-.778 1.456-1.302.427-.625.64-1.348.64-2.17 0-1.25-.5-2.255-1.501-3.016-1.001-.777-2.518-1.165-4.55-1.165h-7.905Zm7.994 12.725h-3.666v-3.244h3.666c.751 0 1.318.137 1.7.41.398.26.596.663.596 1.211 0 .549-.198.96-.596 1.234-.383.26-.95.389-1.7.389Zm-3.666-6.373v-3.084h3.004c.736 0 1.288.13 1.656.389.368.243.552.624.552 1.142 0 .517-.184.906-.552 1.165-.368.259-.92.389-1.656.389h-3.004v-.001Zm31.074 9.846c-1.53 0-2.723-.389-3.577-1.165-.854-.792-1.28-1.98-1.28-3.564v-4.158h-1.745v-3.244h1.744v-3.22h4.196v3.22h2.738v3.244h-2.738v4.112c0 .442.118.792.353 1.051.236.244.538.365.906.365.5 0 .927-.129 1.281-.388l1.037 3.038c-.353.244-.787.42-1.303.526a6.959 6.959 0 0 1-1.612.183Zm-12.799 0c-1.413 0-2.65-.274-3.71-.822-1.045-.564-1.862-1.325-2.451-2.285-.574-.974-.861-2.078-.861-3.312s.28-2.33.839-3.29a5.922 5.922 0 0 1 2.362-2.261c1.002-.548 2.128-.822 3.38-.822 1.177 0 2.252.251 3.223.754a5.569 5.569 0 0 1 2.319 2.17c.574.96.862 2.125.862 3.496 0 .152-.008.327-.023.525-.014.198-.03.38-.043.548H83.48c.058.221.137.427.238.617.251.441.604.784 1.06 1.028.457.228 1.002.343 1.635.343.588 0 1.088-.084 1.5-.252a4.708 4.708 0 0 0 1.26-.822l2.208 2.376a5.691 5.691 0 0 1-2.12 1.508c-.84.335-1.832.503-2.98.503v-.002Zm-2.606-8.385a2.86 2.86 0 0 0-.256.8h4.899a2.566 2.566 0 0 0-.27-.822 2.282 2.282 0 0 0-.883-.96c-.368-.228-.803-.342-1.304-.342-.5 0-.942.114-1.324.342a2.3 2.3 0 0 0-.862.983ZM52.28 29a6.119 6.119 0 0 1-1.921-.32c-.633-.197-1.149-.465-1.546-.8l1.457-3.038c.251.228.538.403.861.526.34.137.67.205.994.205.457 0 .817-.107 1.082-.32.209-.168.394-.41.558-.73L48.636 11.98h4.306l2.939 7.566 2.958-7.566h3.996l-5.167 12.885c-.412 1.065-.89 1.895-1.435 2.49-.53.609-1.126 1.035-1.789 1.278-.648.244-1.369.366-2.164.366Zm-12.141-5.254c1.045.548 2.23.822 3.555.822 1.324 0 2.525-.297 3.511-.89a4.881 4.881 0 0 0 2.099-2.514l-3.247-1.713c-.28.578-.626 1.005-1.038 1.279a2.48 2.48 0 0 1-1.347.388c-.486 0-.927-.114-1.325-.342a2.462 2.462 0 0 1-.95-1.005c-.22-.442-.331-.983-.331-1.622 0-.639.11-1.15.331-1.576.236-.442.552-.777.95-1.005.397-.229.839-.343 1.325-.343s.935.137 1.347.411c.413.26.758.678 1.038 1.257l3.246-1.714a4.884 4.884 0 0 0-2.098-2.513c-.986-.594-2.157-.89-3.511-.89-1.355 0-2.51.273-3.555.822a6.054 6.054 0 0 0-2.43 2.238c-.589.96-.883 2.064-.883 3.313s.294 2.36.883 3.335a6.208 6.208 0 0 0 2.43 2.262Zm-21.484.229c.78.396 1.657.594 2.628.594.913 0 1.76-.221 2.54-.663a4.12 4.12 0 0 0 1.015-.837v1.294h3.997V11.982H24.64v5.962c0 .686-.104 1.25-.31 1.69-.206.427-.478.74-.817.937a2.192 2.192 0 0 1-1.126.297c-.633 0-1.126-.206-1.48-.617-.338-.41-.507-1.096-.507-2.056v-6.213h-4.196v6.922c0 1.294.214 2.368.64 3.22.442.838 1.046 1.455 1.811 1.85Z" fill="#FFCBFA"/><path d="M3.353 8.67h11.454v8.68h-.001c-.034 2.671-1.188 4.923-2.693 6.272-1.455 1.304-3.423 1.81-5.057 1.81-1.723 0-3.44-.732-4.686-1.438C1.132 23.292 0 22.417 0 22.417l3.533-3.856c.316.25.713.522 1.153.771.953.54 1.78.793 2.255.793.333 0 1.026-.195 1.624-.73.525-.47.921-1.148.921-2.164v-3.254H3.353V8.67Z" fill="#A56CFF"/><path d="M10.058 7.583c-.11-3.09-2.521-5.56-5.48-5.56-.522 0-1.027.077-1.505.22.11 3.09 2.521 5.56 5.48 5.56.522 0 1.027-.077 1.505-.22Z" fill="#197F3B"/><path d="M6.705 7.506C6.855 3.334 10.134 0 14.158 0c.71 0 1.396.104 2.045.297-.149 4.173-3.428 7.506-7.452 7.506a7.14 7.14 0 0 1-2.046-.297Z" fill="#8CE36D"/></g><defs><clipPath id="a"><path fill="#fff" d="M0 0h102v29H0z"/></clipPath></defs></svg>
